X: 1
T: Gerdie Commane's
M: 4/4
L: 1/8
R: reel
K: Edor
E2 EB, EFGA | BGAF GE E2 | D2 DE DEFG | AFDF BGAF | 
E2 EB, EFGA | BGAF GE E2 | BGAF GBAF | E4 E4 :|
Beed e2 ef | ge (3fed edBG | A2 AB ABde | (3fed ed BAFA |
Beed e2 ef | ge (3fed edBA | fABA GBAF | E4 E4 :|
